X: 14058
T: MILLIE'S JIG
C: Bob McQuillen 25 Dec.'09
B: Bob's Note Book 14 #58
%R: jig
%D:2009
Z: 2020 John Chambers <jc:trillian.mit.edu>
M: 6/8
L: 1/8
K: G
D \
| G2G AGA | B2G D2D | G2G ABc | d3- dBd | e2c ABc | d2B G2B | ABc BAG | fed cBA |
| G2G AGA | B2G DEF | G2G ABc | d3- dBd | e2c ABc | d2B G2D | EcB AGF | G3 G2 :|
|: B \
| d2d edB | deg e2B | dBd e2g | f3- f AB | c2c edc | B2d g2d | efg a2g | faf e2d |
| dBd edB | deg e2d | BGB d2g | f3 e2d | efg a2e | def e2B | cde f2d | g3- g2 :|
%%begintext align
%% Mr. and Mrs Peter Orzechowski of Newport, NH,
%% are the proud parents (of course!) of three fine sons
%% and two lovely daughters, one of whom, although
%% actually named Amelia, is called Millie. And as you can
%% plainly see, this tune is for her, with much, much love
%% from Bob --
%%endtext

%%sep 1 1 500

%%sep 1 1 500

